picto/bike-station-left-framed.svg

<svg class="color-immutable" width="30" height="30" viewBox="0 0 30 30" fill="none" xmlns="http://www.w3.org/2000/svg"><path d="M30 30H0V0H30V30Z" fill="#2D327D"/><path d="M25.5 3C26.325 3 27 3.675 27 4.5V25.5C27 26.325 26.325 27 25.5 27H4.5C3.675 27 3 26.325 3 25.5V4.5C3 3.675 3.675 3 4.5 3H25.5ZM25.5 2.625H4.5C3.46613 2.625 2.625 3.46613 2.625 4.5V25.5C2.625 26.5339 3.46613 27.375 4.5 27.375H25.5C26.5339 27.375 27.375 26.5339 27.375 25.5V4.5C27.375 3.46613 26.5339 2.625 25.5 2.625Z" fill="white"/><path d="M12.375 8.43749L13.125 9.18749L13.875 8.43749L14.625 9.18749L15.5625 8.24999L14.625 7.31249H10.3364C9.9784 6.51682 9.17912 5.96249 8.25002 5.96249C6.98665 5.96249 5.96252 6.98662 5.96252 8.24999C5.96252 9.51337 6.98665 10.5375 8.25002 10.5375C9.1792 10.5375 9.9784 9.98317 10.3364 9.18749H11.625L12.375 8.43749ZM7.12502 8.99999C6.7108 8.99999 6.37502 8.66422 6.37502 8.24999C6.37502 7.83577 6.7108 7.49999 7.12502 7.49999C7.53925 7.49999 7.87502 7.83577 7.87502 8.24999C7.87502 8.66422 7.53925 8.99999 7.12502 8.99999Z" fill="white"/><path d="M24 15.4875V14.25L15 10.125L6 14.25V15.4875L15 11.3625L24 15.4875Z" fill="white"/><path d="M16.7366 15.9461L18.3209 16.5002C18.3549 16.5131 18.3925 16.5188 18.4292 16.5188C18.5387 16.5188 18.6402 16.4642 18.7013 16.3733L19.0573 15.8453C19.0865 15.8015 19.1012 15.7502 19.1012 15.6991C19.1012 15.5537 18.9842 15.4359 18.8394 15.4359H16.8237C16.6781 15.4359 16.5603 15.5537 16.5603 15.6991C16.5604 15.8105 16.6318 15.9095 16.7366 15.9461Z" fill="white"/><path d="M11.1931 15.9609H13.4906V15.4359H11.1931C11.0484 15.4359 10.9313 15.5535 10.9313 15.6988C10.9313 15.8432 11.0484 15.9609 11.1931 15.9609Z" fill="white"/><path d="M11.1938 16.8143H11.5221C11.6669 16.8143 11.7848 16.6965 11.7848 16.5518C11.7848 16.4064 11.6669 16.2887 11.5221 16.2887H11.1938C11.049 16.2887 10.932 16.4064 10.932 16.5518C10.932 16.6965 11.049 16.8143 11.1938 16.8143Z" fill="white"/><path d="M19.6593 17.5681C19.1479 17.5681 18.6432 17.69 18.1888 17.9238L17.5588 16.9125H12.4403L11.8104 17.9238C11.356 17.69 10.8521 17.5681 10.3407 17.5681C8.5655 17.5681 7.12512 19.0085 7.12512 20.7844C7.12512 22.5586 8.5655 23.9999 10.3407 23.9999C12.1152 23.9999 13.5556 22.5586 13.5556 20.7844C13.5556 19.7657 13.0743 18.8086 12.2565 18.2009L12.6094 17.6339L14.3295 20.1914C14.2109 20.3416 14.1467 20.5269 14.1467 20.7185C14.1467 21.1889 14.5294 21.5716 14.9992 21.5716C15.3308 21.5716 15.6324 21.3791 15.773 21.0793H16.4576C16.6095 22.7341 17.9979 23.9999 19.6593 23.9999C21.4346 23.9999 22.8751 22.5585 22.8751 20.7843C22.875 19.0085 21.4345 17.5681 19.6593 17.5681ZM13.0312 20.7844C13.0312 22.2695 11.8257 23.475 10.3406 23.475C8.85552 23.475 7.64937 22.2695 7.64937 20.7844C7.64937 19.2986 8.85552 18.0936 10.3406 18.0936C10.7543 18.0936 11.1615 18.1888 11.5323 18.3715L10.117 20.6454C10.0919 20.6869 10.0782 20.7348 10.0782 20.7844C10.0782 20.9291 10.1951 21.0469 10.3406 21.0469C10.4316 21.0469 10.5153 20.9996 10.5633 20.9225L11.9786 18.6494C12.642 19.1588 13.0312 19.9477 13.0312 20.7844ZM15.2349 19.8981C15.1584 19.8761 15.0795 19.8656 14.9991 19.8656C14.9203 19.8656 14.8414 19.8761 14.7651 19.8981L13.1101 17.4373H16.8898L15.2349 19.8981ZM16.4516 20.5544H15.8371C15.8111 20.4221 15.7544 20.297 15.6705 20.1914L17.3898 17.6339L17.7435 18.2009C16.9906 18.7598 16.5192 19.6194 16.4516 20.5544ZM18.0213 18.6494L19.2073 20.5544H16.9783C17.0426 19.8007 17.4215 19.1093 18.0213 18.6494ZM19.6593 23.475C18.2871 23.475 17.1353 22.4424 16.984 21.0794H19.2252C19.3229 21.2231 19.4854 21.3092 19.6593 21.3092C19.9487 21.3092 20.1835 21.0736 20.1835 20.7844C20.1835 20.4944 19.9487 20.2587 19.6593 20.2587C19.6536 20.2587 19.6471 20.2587 19.6424 20.2596L18.467 18.3715C18.8375 18.1888 19.2456 18.0936 19.6593 18.0936C21.1444 18.0936 22.349 19.2986 22.349 20.7844C22.349 22.2695 21.1444 23.475 19.6593 23.475Z" fill="white"/></svg>

<svg class="color-immutable" width="30" height="30" viewBox="0 0 30 30" fill="none" xmlns="http://www.w3.org/2000/svg"><g clip-path="url(#a)"><path d="M30 30H0V0h30v30Z" fill="#2D327D"/><path d="M25.5 3c.825 0 1.5.675 1.5 1.5v21c0 .825-.675 1.5-1.5 1.5h-21c-.825 0-1.5-.675-1.5-1.5v-21C3 3.675 3.675 3 4.5 3h21Zm0-.375h-21A1.877 1.877 0 0 0 2.625 4.5v21c0 1.034.841 1.875 1.875 1.875h21a1.877 1.877 0 0 0 1.875-1.875v-21A1.877 1.877 0 0 0 25.5 2.625Z" fill="#fff"/><path d="m12.375 8.437.75.75.75-.75.75.75.938-.937-.938-.938h-4.289a2.287 2.287 0 1 0 0 1.875h1.289l.75-.75ZM7.125 9a.75.75 0 1 1 0-1.5.75.75 0 0 1 0 1.5ZM24 15.488V14.25l-9-4.125-9 4.125v1.238l9-4.125 9 4.125Z" fill="#fff"/><path d="m16.737 15.946 1.584.554a.327.327 0 0 0 .38-.127l.356-.528a.264.264 0 0 0-.218-.41h-2.015a.263.263 0 0 0-.087.51ZM11.193 15.96h2.298v-.524h-2.298a.262.262 0 0 0 0 .525ZM11.194 16.814h.328a.263.263 0 0 0 0-.525h-.328a.262.262 0 0 0 0 .525ZM19.66 17.568c-.512 0-1.017.122-1.471.356l-.63-1.011H12.44l-.63 1.01A3.217 3.217 0 1 0 10.34 24a3.217 3.217 0 0 0 1.917-5.798l.352-.567 1.72 2.557a.854.854 0 1 0 1.444.888h.685a3.215 3.215 0 0 0 6.417-.295 3.217 3.217 0 0 0-3.216-3.216Zm-6.629 3.216a2.692 2.692 0 0 1-5.382 0 2.692 2.692 0 0 1 3.883-2.412l-1.415 2.273a.262.262 0 1 0 .446.277l1.416-2.273a2.692 2.692 0 0 1 1.052 2.135Zm2.204-.886a.85.85 0 0 0-.47 0l-1.655-2.46h3.78l-1.655 2.46Zm1.217.656h-.615a.846.846 0 0 0-.166-.363l1.719-2.557.354.567a3.22 3.22 0 0 0-1.292 2.353Zm1.57-1.905 1.185 1.905h-2.229a2.689 2.689 0 0 1 1.043-1.905Zm1.637 4.826a2.692 2.692 0 0 1-2.675-2.396h2.241a.525.525 0 1 0 .434-.82h-.017l-1.175-1.887a2.69 2.69 0 1 1 1.192 5.104Z" fill="#fff"/></g><defs><clipPath id="a"><path fill="#fff" d="M0 0h30v30H0z"/></clipPath></defs></svg>
